!!!COM: Claude Goudimel
!!!OMD: Psalm 35: Deba contre mes debateurs
**kern	**kern	**kern	**kern
*part4	*part3	*part2	*part1
*staff4	*staff3	*staff2	*staff1
*I"bassus	*I"tenor	*I"contra	*I"superius
*clefF4	*clefC4	*clefC3	*clefC1
*k[b-]	*k[b-]	*k[b-]	*k[b-]
!!LO:TX:omd:t=
*M2/2	*M2/2	*M2/2	*M2/2
*met(c|)	*met(c|)	*met(c|)	*met(c|)
=1	=1	=1	=1
1FF	1F	1C	1c
=2	=2	=2	=2
2BB-	2F	2D	2B-
2GG	2G	2D	2B-
=3	=3	=3	=3
2FF	2A	2F	2c
2C	[2G	2E	2c
=4	=4	=4	=4
1D	2G]	1F	1A
.	[2F	.	.
=5	=5	=5	=5
1C	2F]	1G	1c
.	2E	.	.
=6	=6	=6	=6
1FF	1F	1A	1c
=7	=7	=7	=7
1r	1r	1r	1r
=8	=8	=8	=8
1F	1A	1c	1f
=9	=9	=9	=9
2F	2A	2c	2f
2C	2G	2c	2e
=10	=10	=10	=10
1F	1A	1c	1f
=11	=11	=11	=11
1F	1c	1A	1f
=12	=12	=12	=12
2G	2B-	2B-	2d
2F	2A	2c	2f
=13	=13	=13	=13
1C	1G	1c	1e
=14	=14	=14	=14
1r	1r	1r	1r
=15	=15	=15	=15
1F	1A	1F	1c
=16	=16	=16	=16
2C	2c	2G	2e
2F	2c	2A	2f
=17	=17	=17	=17
2BB-	2d	2B-	2f
2FF	2c	2A	2f
=18	=18	=18	=18
2BB-	2B-	2d	2f
2FF	2A	2c	2f
=19	=19	=19	=19
1C	1G	1c	1e
=20	=20	=20	=20
1FF	1F	1A	1c
=21	=21	=21	=21
1r	1r	1r	1r
=22	=22	=22	=22
1AA	1C	1E	1A
=23	=23	=23	=23
2GG	2D	2G	2B-
2C	2E	2G	2c
=24	=24	=24	=24
2BB-	2F	2D	2d
2FF	2A	2F	2c
=25	=25	=25	=25
2C	2G	2E	2c
2D	2F	2F	2A
=26	=26	=26	=26
1C	1E	1G	1c
=27	=27	=27	=27
1FF	1F	1F	1c
=28	=28	=28	=28
1r	1r	1r	1r
=29	=29	=29	=29
1F	1F	1A	1c
=30	=30	=30	=30
1C	1G	1c	1e
=31	=31	=31	=31
1F	1A	1c	1f
=32	=32	=32	=32
2F	2F	2A	2c
2E	2G	2G	2e
=33	=33	=33	=33
2D	2A	2F	2f
2D	2B-	2F	2d
=34	=34	=34	=34
1C	1c	1G	1e
=35	=35	=35	=35
1r	1r	1r	1r
=36	=36	=36	=36
1F	1F	1A	1c
=37	=37	=37	=37
1C	1G	1c	1e
=38	=38	=38	=38
1F	1A	1c	1f
=39	=39	=39	=39
2BB-	2F	2B-	2d
2C	2E	2G	2c
=40	=40	=40	=40
2GG	2D	2G	2c
2GG	2D	2G	2Bn
=41	=41	=41	=41
1C	1C	1G	1c
=42	=42	=42	=42
1r	1r	1r	1r
=43	=43	=43	=43
1C	1c	1G	1e
=44	=44	=44	=44
2F	2c	2A	2f
2F	2A	2c	2f
=45	=45	=45	=45
1BB-	1F	1B-	1d
=46	=46	=46	=46
1BB-	1B-	1F	1d
=47	=47	=47	=47
2FF	2A	2F	2c
2C	2G	2E	2c
=48	=48	=48	=48
1FF	1A	1F	1c
=49	=49	=49	=49
1r	1r	1r	1r
=50	=50	=50	=50
1FF	1A	1F	1c
=51	=51	=51	=51
2C	2G	2E	2c
2D	2F	2F	2A
=52	=52	=52	=52
1C	1E	1G	1c
=53	=53	=53	=53
1GG	1G	1B-	1d
=54	=54	=54	=54
2BB-	2F	2B-	2d
2C	2E	2G	2c
=55	=55	=55	=55
1FF;	1F;	1F;	1c;
==	==	==	==
*-	*-	*-	*-
!!!software: music21 v.9.7.1
!!!software: music21 v.9.1.0
!!!RDF**kern: > = above
!!!RDF**kern: < = below
